humanity-icon-theme/Humanity/apps/32/gnome-panel-window-list.svg

<?xml version="1.0" encoding="UTF-8" standalone="no"?>
<!-- Created with Inkscape (http://www.inkscape.org/) -->

<svg
   xmlns:svg="http://www.w3.org/2000/svg"
   xmlns="http://www.w3.org/2000/svg"
   xmlns:xlink="http://www.w3.org/1999/xlink"
   version="1.1"
   width="32"
   height="32"
   id="svg2285">
  <defs
     id="defs2287">
    <linearGradient
       id="linearGradient3709">
      <stop
         id="stop3711"
         style="stop-color:black;stop-opacity:1"
         offset="0" />
      <stop
         id="stop3713"
         style="stop-color:black;stop-opacity:1"
         offset="0.12681346" />
      <stop
         id="stop3715"
         style="stop-color:white;stop-opacity:1"
         offset="0.17729537" />
      <stop
         id="stop3717"
         style="stop-color:white;stop-opacity:1"
         offset="0.8666079" />
      <stop
         id="stop3719"
         style="stop-color:black;stop-opacity:1"
         offset="0.92491192" />
      <stop
         id="stop3721"
         style="stop-color:black;stop-opacity:1"
         offset="1" />
    </linearGradient>
    <linearGradient
       id="linearGradient2181">
      <stop
         id="stop2183"
         style="stop-color:#f0f0f0;stop-opacity:1"
         offset="0" />
      <stop
         id="stop2185"
         style="stop-color:#d3d3d3;stop-opacity:1"
         offset="1" />
    </linearGradient>
    <linearGradient
       id="linearGradient3781">
      <stop
         id="stop3783"
         style="stop-color:white;stop-opacity:1"
         offset="0" />
      <stop
         id="stop3785"
         style="stop-color:white;stop-opacity:0"
         offset="1" />
    </linearGradient>
    <linearGradient
       x1="21.299309"
       y1="23.933344"
       x2="21.039474"
       y2="48.794884"
       id="linearGradient3062"
       xlink:href="#linearGradient2181"
       gradientUnits="userSpaceOnUse"
       gradientTransform="matrix(1,0,0,1.004318,0,-6.023254)" />
    <linearGradient
       x1="19.363312"
       y1="24.925411"
       x2="19.546108"
       y2="47.826794"
       id="linearGradient3840"
       xlink:href="#linearGradient3781"
       gradientUnits="userSpaceOnUse"
       gradientTransform="matrix(1.043004,0,0,1.004318,-1.032297,-6.023254)" />
    <linearGradient
       id="linearGradient2781">
      <stop
         id="stop2783"
         style="stop-color:#505050;stop-opacity:1"
         offset="0" />
      <stop
         id="stop6301"
         style="stop-color:#6e6e6e;stop-opacity:1"
         offset="0.13216467" />
      <stop
         id="stop2785"
         style="stop-color:#8c8c8c;stop-opacity:1"
         offset="1" />
    </linearGradient>
    <linearGradient
       x1="21.866402"
       y1="8.5763302"
       x2="21.780495"
       y2="39.923653"
       id="linearGradient4288"
       xlink:href="#linearGradient2781"
       gradientUnits="userSpaceOnUse"
       gradientTransform="matrix(0.27273093,0,0,0.26229943,6.1817186,10.139238)" />
    <linearGradient
       id="linearGradient4168">
      <stop
         id="stop4170"
         style="stop-color:#f8cd70;stop-opacity:1"
         offset="0" />
      <stop
         id="stop4172"
         style="stop-color:#cc9110;stop-opacity:1"
         offset="1" />
    </linearGradient>
    <linearGradient
       x1="23"
       y1="20"
       x2="23"
       y2="23"
       id="linearGradient3952"
       xlink:href="#linearGradient4168"
       gradientUnits="userSpaceOnUse"
       gradientTransform="translate(-7.999987,-8.0000006)" />
    <radialGradient
       cx="14.644068"
       cy="30.538208"
       r="23.96875"
       fx="14.644068"
       fy="30.538208"
       id="radialGradient2913"
       xlink:href="#linearGradient2181"
       gradientUnits="userSpaceOnUse"
       gradientTransform="matrix(3.0972922,0.05187265,-0.0170043,1.0113751,-29.803076,-1.1070013)" />
    <radialGradient
       cx="14.644068"
       cy="30.538208"
       r="23.96875"
       fx="14.644068"
       fy="30.538208"
       id="radialGradient2915"
       xlink:href="#linearGradient2181"
       gradientUnits="userSpaceOnUse"
       gradientTransform="matrix(3.0790726,0.05188162,-0.01690427,1.01155,-30.089527,-1.1112571)" />
    <radialGradient
       cx="7.9900565"
       cy="-1.1832852"
       r="24.015625"
       fx="7.9900565"
       fy="-1.1832852"
       id="radialGradient3693"
       xlink:href="#linearGradient3781"
       gradientUnits="userSpaceOnUse"
       gradientTransform="matrix(1.8424228,-0.00718001,9.4868904e-4,0.43458053,-9.9398176,16.557583)" />
    <radialGradient
       cx="8.1839085"
       cy="-1.0923979"
       r="24.015625"
       fx="8.1839085"
       fy="-1.0923979"
       id="radialGradient3695"
       xlink:href="#linearGradient3781"
       gradientUnits="userSpaceOnUse"
       gradientTransform="matrix(2.426869,-0.00717908,0.00124963,0.43452394,-12.859908,16.533426)" />
    <linearGradient
       x1="-0.99999458"
       y1="30.683962"
       x2="49.269604"
       y2="30.683962"
       id="linearGradient3727"
       xlink:href="#linearGradient3709"
       gradientUnits="userSpaceOnUse"
       gradientTransform="matrix(0.75592409,0,0,0.75097405,-3.24408,-6.0428586)" />
    <mask
       id="mask3723">
      <rect
         width="37.796204"
         height="20.276299"
         x="-4"
         y="6.7237015"
         id="rect3725"
         style="fill:url(#linearGradient3727);fill-opacity:1;stroke:none" />
    </mask>
  </defs>
  <g
     mask="url(#mask3723)"
     id="g3697">
    <rect
       width="47.055229"
       height="23.968893"
       rx="0"
       ry="0"
       x="0.52150255"
       y="18.513433"
       transform="matrix(0.75592409,0,0,0.75097405,-2.8091995,-6.403125)"
       id="rect3734"
       style="fill:url(#linearGradient3062);fill-opacity:1;stroke:#969696;stroke-width:1.32723749;stroke-linecap:butt;stroke-linejoin:round;stroke-miterlimit:4;stroke-opacity:1;stroke-dasharray:none;stroke-dashoffset:0" />
    <path
       d="M -2.5,9.5000001 -2.5,23.5 l 5.0117647,0 c 0.1027076,0 0.2128862,-0.01859 0.3058824,-0.04865 0.1456476,-0.05121 0.2938858,-0.156835 0.3999999,-0.267536 0.04905,-0.05367 0.1040953,-0.130776 0.1411765,-0.194572 C 3.4419751,22.838043 3.5,22.641679 3.5,22.454172 l 0,-11.908347 C 3.5,10.358317 3.4419749,10.161953 3.3588235,10.010751 3.3217425,9.9469564 3.2666966,9.8698611 3.217647,9.8161801 3.1115329,9.7054795 2.9632947,9.5998571 2.8176471,9.5486432 2.7246509,9.5185935 2.6144722,9.5000001 2.5117647,9.5000001 l -5.0117647,0 z"
       id="path2911"
       style="fill:url(#radialGradient2915);fill-opacity:1;stroke:#8c8c8c;stroke-width:1;stroke-linecap:butt;stroke-linejoin:round;stroke-miterlimit:4;stroke-opacity:1;stroke-dasharray:none;stroke-dashoffset:0" />
    <path
       d="M 6.37574,9.5024209 C 6.3175339,9.5100509 6.2409598,9.5335319 6.1863909,9.5510559 6.0398816,9.6022579 5.8907661,9.7078648 5.784024,9.8185465 5.7346871,9.8722155 5.6793125,9.9492999 5.6420121,10.013085 5.5583685,10.164261 5.5000003,10.360592 5.5000003,10.548067 l 0,11.906287 c 0,0.187475 0.058365,0.383806 0.1420118,0.534982 0.037302,0.06378 0.092672,0.140867 0.1420119,0.194538 0.1067421,0.110682 0.2558576,0.216286 0.4023669,0.267491 C 6.2799377,23.48141 6.3907675,23.5 6.4940832,23.5 l 27.0059188,0 0,-13.9975791 -27.0059188,0 c -0.043051,0 -0.076766,-0.00545 -0.1183432,0 z"
       id="rect3762"
       style="fill:url(#radialGradient2913);fill-opacity:1;stroke:#8c8c8c;stroke-width:1;stroke-linecap:butt;stroke-linejoin:round;stroke-miterlimit:4;stroke-opacity:1;stroke-dasharray:none;stroke-dashoffset:0" />
    <path
       d="m -1.4999994,10.499999 0,12 3.6444438,0 c 0.053724,0 0.11476,-0.01834 0.16,-0.0472 0.083068,-0.05976 0.1537594,-0.182281 0.1777777,-0.306764 C 2.4868018,22.116183 2.5,22.083338 2.5,22.051654 l 0,-11.079701 c 0,-0.134698 -0.055116,-0.270356 -0.1244445,-0.35396 -0.017016,-0.01862 -0.051565,-0.05673 -0.071112,-0.07079 -0.045239,-0.02885 -0.1062761,-0.0472 -0.1600001,-0.0472 l -3.6444438,0 z"
       id="path3691"
       style="opacity:0.8;fill:none;stroke:url(#radialGradient3693);stroke-width:0.99999994;stroke-linecap:butt;stroke-linejoin:round;stroke-miterlimit:4;stroke-opacity:1;stroke-dasharray:none;stroke-dashoffset:0" />
    <path
       d="m 6.8980917,10.476631 c -0.052731,0.008 -0.1188656,0.04619 -0.1639202,0.07078 -0.018727,0.01144 -0.053444,0.03322 -0.070252,0.04719 -0.010746,0.0099 -0.037071,0.03636 -0.046834,0.04719 -0.013862,0.01693 -0.035482,0.05192 -0.046834,0.07078 C 6.5353766,10.777422 6.5,10.869294 6.5,10.948517 l 0,11.078258 c 0,0.03961 0.01411,0.08137 0.023418,0.117972 0.013234,0.04304 0.045815,0.10506 0.070252,0.141565 0.082678,0.111527 0.2252791,0.188755 0.3746748,0.188755 l 26.5316562,0 0,-11.998436 -26.5316562,0 c -0.023589,0 -0.047651,-0.0035 -0.070252,0 z"
       id="rect3736"
       style="opacity:0.7;fill:none;stroke:url(#radialGradient3695);stroke-width:0.99999994;stroke-linecap:butt;stroke-linejoin:round;stroke-miterlimit:4;stroke-opacity:1;stroke-dasharray:none;stroke-dashoffset:0" />
    <rect
       width="14.362557"
       height="3"
       rx="0.5625"
       ry="0.5625"
       x="19"
       y="15"
       id="rect3752"
       style="opacity:0.1;fill:black;fill-opacity:1;stroke:none" />
    <rect
       width="47.590965"
       height="22.000271"
       rx="0"
       ry="0"
       x="0.40903547"
       y="19.509785"
       transform="matrix(0.75592409,0,0,0.72726375,-2.8091995,-5.6887591)"
       id="rect2247"
       style="opacity:0.8;fill:none;stroke:url(#linearGradient3840);stroke-width:1.34869933;stroke-linecap:butt;stroke-linejoin:round;stroke-miterlimit:4;stroke-opacity:1;stroke-dasharray:none;stroke-dashoffset:0" />
    <rect
       width="9.0001345"
       height="8.0001345"
       x="8.4999323"
       y="12.499932"
       id="rect1887"
       style="fill:url(#linearGradient4288);fill-opacity:1;stroke:#565853;stroke-width:0.99986547;stroke-linejoin:round;stroke-miterlimit:4;stroke-opacity:1;stroke-dasharray:none" />
    <rect
       width="8"
       height="5"
       x="9"
       y="15"
       id="rect6287"
       style="fill:white;fill-opacity:1;stroke:none" />
    <rect
       width="3"
       height="1"
       x="13"
       y="13"
       id="rect3650"
       style="fill:url(#linearGradient3952);fill-opacity:1;stroke:none" />
  </g>
</svg>

<?xml version="1.0" encoding="UTF-8" standalone="no"?>
<!-- Created with Inkscape (http://www.inkscape.org/) -->
<svg id="svg2285" xmlns="http://www.w3.org/2000/svg" height="32" width="32" version="1.1" xmlns:xlink="http://www.w3.org/1999/xlink">
 <defs id="defs2287">
  <linearGradient id="linearGradient2181">
   <stop id="stop2183" style="stop-color:#f0f0f0" offset="0"/>
   <stop id="stop2185" style="stop-color:#d3d3d3" offset="1"/>
  </linearGradient>
  <linearGradient id="linearGradient3781">
   <stop id="stop3783" style="stop-color:#fff" offset="0"/>
   <stop id="stop3785" style="stop-color:#fff;stop-opacity:0" offset="1"/>
  </linearGradient>
  <linearGradient id="linearGradient3062" y2="48.795" xlink:href="#linearGradient2181" gradientUnits="userSpaceOnUse" x2="21.039" gradientTransform="matrix(1 0 0 1.0043 0 -6.0233)" y1="23.933" x1="21.299"/>
  <linearGradient id="linearGradient3840" y2="47.827" xlink:href="#linearGradient3781" gradientUnits="userSpaceOnUse" x2="19.546" gradientTransform="matrix(1.043 0 0 1.0043 -1.0323 -6.0233)" y1="24.925" x1="19.363"/>
  <linearGradient id="linearGradient4288" y2="39.924" gradientUnits="userSpaceOnUse" x2="21.78" gradientTransform="matrix(.27273 0 0 .26230 6.1817 10.139)" y1="8.5763" x1="21.866">
   <stop id="stop2783" style="stop-color:#505050" offset="0"/>
   <stop id="stop6301" style="stop-color:#6e6e6e" offset=".13216"/>
   <stop id="stop2785" style="stop-color:#8c8c8c" offset="1"/>
  </linearGradient>
  <linearGradient id="linearGradient3952" y2="23" gradientUnits="userSpaceOnUse" x2="23" gradientTransform="translate(-8 -8)" y1="20" x1="23">
   <stop id="stop4170" style="stop-color:#f8cd70" offset="0"/>
   <stop id="stop4172" style="stop-color:#cc9110" offset="1"/>
  </linearGradient>
  <radialGradient id="radialGradient2913" xlink:href="#linearGradient2181" gradientUnits="userSpaceOnUse" cy="30.538" cx="14.644" gradientTransform="matrix(3.0973 .051873 -.017004 1.0114 -29.803 -1.107)" r="23.969"/>
  <radialGradient id="radialGradient2915" xlink:href="#linearGradient2181" gradientUnits="userSpaceOnUse" cy="30.538" cx="14.644" gradientTransform="matrix(3.0791 .051882 -.016904 1.0116 -30.09 -1.1113)" r="23.969"/>
  <radialGradient id="radialGradient3693" xlink:href="#linearGradient3781" gradientUnits="userSpaceOnUse" cy="-1.1833" cx="7.9901" gradientTransform="matrix(1.8424 -0.00718 .00094869 .43458 -9.9398 16.558)" r="24.016"/>
  <radialGradient id="radialGradient3695" xlink:href="#linearGradient3781" gradientUnits="userSpaceOnUse" cy="-1.0924" cx="8.1839" gradientTransform="matrix(2.4269 -.0071791 .0012496 .43452 -12.86 16.533)" r="24.016"/>
  <linearGradient id="linearGradient3727" y2="30.684" gradientUnits="userSpaceOnUse" x2="49.27" gradientTransform="matrix(.75592 0 0 .75097 -3.2441 -6.0429)" y1="30.684" x1="-.99999">
   <stop id="stop3711" offset="0"/>
   <stop id="stop3713" offset=".12681"/>
   <stop id="stop3715" style="stop-color:#fff" offset=".17730"/>
   <stop id="stop3717" style="stop-color:#fff" offset=".86661"/>
   <stop id="stop3719" offset=".92491"/>
   <stop id="stop3721" offset="1"/>
  </linearGradient>
  <mask id="mask3723">
   <rect id="rect3725" style="fill:url(#linearGradient3727)" height="20.276" width="37.796" y="6.7237" x="-4"/>
  </mask>
 </defs>
 <g id="g3697" mask="url(#mask3723)">
  <rect id="rect3734" style="stroke-linejoin:round;stroke:#969696;stroke-width:1.3272;fill:url(#linearGradient3062)" transform="matrix(.75592 0 0 .75097 -2.8092 -6.4031)" rx="0" ry="0" height="23.969" width="47.055" y="18.513" x=".52150"/>
  <path id="path2911" style="stroke-linejoin:round;stroke:#8c8c8c;fill:url(#radialGradient2915)" d="m-2.5 9.5v14h5.0118c0.10271 0 0.21289-0.01859 0.30588-0.04865 0.14565-0.05121 0.29389-0.15684 0.4-0.26754 0.04905-0.05367 0.1041-0.13078 0.14118-0.19457 0.0831-0.151 0.1411-0.347 0.1411-0.535v-11.908c0-0.188-0.058-0.384-0.1412-0.535-0.0371-0.064-0.0921-0.1411-0.1412-0.1948-0.1061-0.1107-0.2543-0.2163-0.4-0.2676-0.0929-0.03-0.2031-0.0486-0.3058-0.0486h-5.0118z"/>
  <path id="rect3762" style="stroke-linejoin:round;stroke:#8c8c8c;fill:url(#radialGradient2913)" d="m6.3757 9.5024c-0.0582 0.0077-0.1347 0.0311-0.1893 0.0487-0.1465 0.0512-0.2956 0.1568-0.4024 0.2674-0.0493 0.0537-0.1047 0.1308-0.142 0.1945-0.0836 0.151-0.142 0.348-0.142 0.535v11.906c0 0.18748 0.058365 0.38381 0.14201 0.53498 0.037302 0.06378 0.092672 0.14087 0.14201 0.19454 0.10674 0.11068 0.25586 0.21629 0.40237 0.26749 0.0935 0.03 0.2044 0.049 0.3077 0.049h27.006v-13.998h-27.006c-0.043051 0-0.076766-0.00545-0.11834 0z"/>
  <path id="path3691" style="opacity:.8;stroke-linejoin:round;stroke:url(#radialGradient3693);fill:none" d="m-1.5 10.5v12h3.6444c0.053724 0 0.11476-0.01834 0.16-0.0472 0.083068-0.05976 0.15376-0.18228 0.17778-0.30676 0.0046-0.03 0.0178-0.063 0.0178-0.094v-11.08c0-0.1347-0.055116-0.27036-0.12444-0.35396-0.017016-0.01862-0.051565-0.05673-0.071112-0.07079-0.045239-0.02885-0.10628-0.0472-0.16-0.0472h-3.6444z"/>
  <path id="rect3736" style="opacity:.7;stroke-linejoin:round;stroke:url(#radialGradient3695);fill:none" d="m6.8981 10.477c-0.052731 0.008-0.11887 0.04619-0.16392 0.07078-0.018727 0.01144-0.053444 0.03322-0.070252 0.04719-0.010746 0.0099-0.037071 0.03636-0.046834 0.04719-0.013862 0.01693-0.035482 0.05192-0.046834 0.07078-0.0349 0.064-0.0703 0.156-0.0703 0.236v11.078c0 0.03961 0.01411 0.08137 0.023418 0.11797 0.013234 0.04304 0.045815 0.10506 0.070252 0.14156 0.082678 0.11153 0.22528 0.18876 0.37467 0.18876h26.532v-11.998h-26.532c-0.023589 0-0.047651-0.0035-0.070252 0z"/>
  <rect id="rect3752" style="opacity:.1" rx=".5625" ry=".5625" height="3" width="14.363" y="15" x="19"/>
  <rect id="rect2247" style="opacity:.8;stroke-linejoin:round;stroke:url(#linearGradient3840);stroke-width:1.3487;fill:none" transform="matrix(.75592 0 0 .72726 -2.8092 -5.6888)" rx="0" ry="0" height="22" width="47.591" y="19.51" x=".40904"/>
  <rect id="rect1887" style="stroke-linejoin:round;stroke:#565853;stroke-width:.99987;fill:url(#linearGradient4288)" height="8.0001" width="9.0001" y="12.5" x="8.4999"/>
  <rect id="rect6287" style="fill:#fff" height="5" width="8" y="15" x="9"/>
  <rect id="rect3650" style="fill:url(#linearGradient3952)" height="1" width="3" y="13" x="13"/>
 </g>
</svg>
